X:8093
T:Dodgy Chanter, The
M:4/4
L:1/8
R:reel
K:Emin
|:EGFD E2BG|FDE2 FGAB|EFFE DFFF|FAAG FEDF|
EGFD E2BG|FDE2 FGAB|z~ffe dBBB|gfdB ~e4:|
|:GBBG BBGB|FAAF AAFA|~E3F GFGA|BAB/c/d edBA|
GzBG BBGB|FzAF AAFA|EDEF GFGA|1BAB/c/d e4:|2gfdB ~e4||
